src/assets/images/icons/app-icon-cms.svg

<svg xmlns="http://www.w3.org/2000/svg" viewBox="0 0 96 96">
  <g fill="none" fill-rule="evenodd">
    <path d="M0 0h96v96H0z"/>
    <path fill="#00A69B" fill-rule="nonzero" d="M20.32 32h11.8c1.28-5 3.12-9.8 5.52-14.24A31.947 31.947 0 0 0 20.32 32ZM30 48c0-2.72.24-5.36.56-8H17.04C16.4 42.56 16 45.24 16 48s.4 5.44 1.04 8h13.52c-.32-2.64-.56-5.28-.56-8Zm-9.68 16a31.947 31.947 0 0 0 17.32 14.24C35.24 73.8 33.4 69 32.12 64h-11.8ZM48 16.16A56.347 56.347 0 0 0 40.36 32h15.28A56.347 56.347 0 0 0 48 16.16ZM75.68 32c-3.84-6.6-9.96-11.72-17.32-14.24C60.76 22.2 62.6 27 63.88 32h11.8ZM48 79.84c3.32-4.8 5.92-10.12 7.64-15.84H40.36A56.347 56.347 0 0 0 48 79.84Zm10.36-1.6C65.72 75.72 71.84 70.6 75.68 64h-11.8c-1.28 5-3.12 9.8-5.52 14.24ZM78.96 40H65.44c.32 2.64.56 5.28.56 8 0 2.72-.24 5.36-.56 8h13.52c.64-2.56 1.04-5.24 1.04-8s-.4-5.44-1.04-8Zm-40.32 0c-.36 2.6-.64 5.28-.64 8 0 2.72.28 5.36.64 8h18.72c.36-2.64.64-5.28.64-8 0-2.72-.28-5.4-.64-8H38.64Z" opacity=".497"/>
    <path fill="#575752" fill-rule="nonzero" d="M47.96 8C25.88 8 8 25.92 8 48s17.88 40 39.96 40C70.08 88 88 70.08 88 48S70.08 8 47.96 8Zm27.72 24h-11.8c-1.28-5-3.12-9.8-5.52-14.24C65.72 20.28 71.84 25.4 75.68 32ZM48 16.16c3.32 4.8 5.92 10.12 7.64 15.84H40.36A56.347 56.347 0 0 1 48 16.16ZM17.04 56C16.4 53.44 16 50.76 16 48s.4-5.44 1.04-8h13.52c-.32 2.64-.56 5.28-.56 8 0 2.72.24 5.36.56 8H17.04Zm3.28 8h11.8c1.28 5 3.12 9.8 5.52 14.24A31.947 31.947 0 0 1 20.32 64Zm11.8-32h-11.8a31.947 31.947 0 0 1 17.32-14.24C35.24 22.2 33.4 27 32.12 32ZM48 79.84A56.347 56.347 0 0 1 40.36 64h15.28A56.347 56.347 0 0 1 48 79.84ZM57.36 56H38.64c-.36-2.64-.64-5.28-.64-8 0-2.72.28-5.4.64-8h18.72c.36 2.6.64 5.28.64 8 0 2.72-.28 5.36-.64 8Zm1 22.24C60.76 73.8 62.6 69 63.88 64h11.8c-3.84 6.6-9.96 11.72-17.32 14.24ZM65.44 56c.32-2.64.56-5.28.56-8 0-2.72-.24-5.36-.56-8h13.52c.64 2.56 1.04 5.24 1.04 8s-.4 5.44-1.04 8H65.44Z"/>
  </g>
</svg>

<?xml version="1.0" encoding="UTF-8"?>
<svg width="96px" height="96px" viewBox="0 0 96 96" version="1.1" xmlns="http://www.w3.org/2000/svg" xmlns:xlink="http://www.w3.org/1999/xlink">
    <!-- Generator: Sketch 52.6 (67491) - http://www.bohemiancoding.com/sketch -->
    <title>app-icon-profile copy</title>
    <desc>Created with Sketch.</desc>
    <g id="app-icon-profile-copy" stroke="none" stroke-width="1" fill="none" fill-rule="evenodd">
        <g id="language-24px">
            <polygon id="Path" points="0 0 96 0 96 96 0 96"></polygon>
            <path d="M20.32,32 L32.12,32 C33.4,27 35.24,22.2 37.64,17.76 C30.28,20.28 24.16,25.36 20.32,32 Z M30,48 C30,45.28 30.24,42.64 30.56,40 L17.04,40 C16.4,42.56 16,45.24 16,48 C16,50.76 16.4,53.44 17.04,56 L30.56,56 C30.24,53.36 30,50.72 30,48 Z M20.32,64 C24.16,70.64 30.28,75.72 37.64,78.24 C35.24,73.8 33.4,69 32.12,64 L20.32,64 Z M48,16.16 C44.68,20.96 42.08,26.28 40.36,32 L55.64,32 C53.92,26.28 51.32,20.96 48,16.16 Z M75.68,32 C71.84,25.4 65.72,20.28 58.36,17.76 C60.76,22.2 62.6,27 63.88,32 L75.68,32 Z M48,79.84 C51.32,75.04 53.92,69.72 55.64,64 L40.36,64 C42.08,69.72 44.68,75.04 48,79.84 Z M58.36,78.24 C65.72,75.72 71.84,70.6 75.68,64 L63.88,64 C62.6,69 60.76,73.8 58.36,78.24 Z M78.96,40 L65.44,40 C65.76,42.64 66,45.28 66,48 C66,50.72 65.76,53.36 65.44,56 L78.96,56 C79.6,53.44 80,50.76 80,48 C80,45.24 79.6,42.56 78.96,40 Z M38.64,40 C38.28,42.6 38,45.28 38,48 C38,50.72 38.28,53.36 38.64,56 L57.36,56 C57.72,53.36 58,50.72 58,48 C58,45.28 57.72,42.6 57.36,40 L38.64,40 Z" id="Shape" fill="#00A69B" fill-rule="nonzero" opacity="0.496521577"></path>
            <path d="M47.96,8 C25.88,8 8,25.92 8,48 C8,70.08 25.88,88 47.96,88 C70.08,88 88,70.08 88,48 C88,25.92 70.08,8 47.96,8 Z M75.68,32 L63.88,32 C62.6,27 60.76,22.2 58.36,17.76 C65.72,20.28 71.84,25.4 75.68,32 Z M48,16.16 C51.32,20.96 53.92,26.28 55.64,32 L40.36,32 C42.08,26.28 44.68,20.96 48,16.16 Z M17.04,56 C16.4,53.44 16,50.76 16,48 C16,45.24 16.4,42.56 17.04,40 L30.56,40 C30.24,42.64 30,45.28 30,48 C30,50.72 30.24,53.36 30.56,56 L17.04,56 Z M20.32,64 L32.12,64 C33.4,69 35.24,73.8 37.64,78.24 C30.28,75.72 24.16,70.64 20.32,64 Z M32.12,32 L20.32,32 C24.16,25.36 30.28,20.28 37.64,17.76 C35.24,22.2 33.4,27 32.12,32 Z M48,79.84 C44.68,75.04 42.08,69.72 40.36,64 L55.64,64 C53.92,69.72 51.32,75.04 48,79.84 Z M57.36,56 L38.64,56 C38.28,53.36 38,50.72 38,48 C38,45.28 38.28,42.6 38.64,40 L57.36,40 C57.72,42.6 58,45.28 58,48 C58,50.72 57.72,53.36 57.36,56 Z M58.36,78.24 C60.76,73.8 62.6,69 63.88,64 L75.68,64 C71.84,70.6 65.72,75.72 58.36,78.24 Z M65.44,56 C65.76,53.36 66,50.72 66,48 C66,45.28 65.76,42.64 65.44,40 L78.96,40 C79.6,42.56 80,45.24 80,48 C80,50.76 79.6,53.44 78.96,56 L65.44,56 Z" id="Shape" fill="#575752" fill-rule="nonzero"></path>
        </g>
    </g>
</svg>
